src/icons/svg/more_write.svg

<?xml version="1.0" encoding="UTF-8"?>
<svg width="16px" height="14px" viewBox="0 0 16 14" version="1.1" xmlns="http://www.w3.org/2000/svg" xmlns:xlink="http://www.w3.org/1999/xlink">
    <!-- Generator: Sketch 54.1 (76490) - https://sketchapp.com -->
    <title>更多</title>
    <desc>Created with Sketch.</desc>
    <defs>
        <polygon id="path-1" points="0.00133891213 0.0278857143 15.9955593 0.0278857143 15.9955593 13.9999714 0.00133891213 13.9999714"></polygon>
    </defs>
    <g id="页面1" stroke="none" stroke-width="1" fill="none" fill-rule="evenodd">
        <g id="M端首页-未登录" transform="translate(-337.000000, -87.000000)">
            <g id="更多" transform="translate(337.000000, 87.000000)">
                <g id="gengduo-3-2">
                    <g id="gengduo">
                        <mask id="mask-2" fill="white">
                            <use xlink:href="#path-1"></use>
                        </mask>
                        <g id="Clip-2"></g>
                        <path d="M15.4030683,13.9999714 L0.592401674,13.9999714 C0.265260809,13.9999714 0,13.6603714 0,13.2415143 C0,12.8225429 0.265260809,12.4830286 0.592401674,12.4830286 L15.4030683,12.4830286 C15.7302985,12.4830286 15.9955593,12.8226286 15.9955593,13.2415143 C15.9955593,13.6603714 15.7302985,13.9999714 15.4030683,13.9999714 Z M15.4030683,7.77242857 L0.592401674,7.77242857 C0.265260809,7.77242857 0,7.4328 0,7.01394286 C0,6.59508571 0.265260809,6.25545714 0.592401674,6.25545714 L15.4030683,6.25545714 C15.7302985,6.25545714 15.9955593,6.59508571 15.9955593,7.01394286 C15.9955593,7.4328 15.7302985,7.77242857 15.4030683,7.77242857 Z M15.4030683,1.54497143 L0.592401674,1.54497143 C0.265260809,1.54497143 0,1.20522857 0,0.786371429 C0,0.367514286 0.265260809,0.0278857143 0.592401674,0.0278857143 L15.4030683,0.0278857143 C15.7302985,0.0278857143 15.9955593,0.367514286 15.9955593,0.786371429 C15.9955593,1.20522857 15.7302985,1.54497143 15.4030683,1.54497143 Z" id="Fill-1" fill="#FFFFFF" mask="url(#mask-2)"></path>
                    </g>
                </g>
            </g>
        </g>
    </g>
</svg>

<svg width="16" height="14" xmlns="http://www.w3.org/2000/svg" xmlns:xlink="http://www.w3.org/1999/xlink"><defs><path id="a" d="M.001.028h15.995V14H0z"/></defs><g fill="none" fill-rule="evenodd"><mask id="b" fill="#fff"><use xlink:href="#a"/></mask><path d="M15.403 14H.593C.264 14 0 13.66 0 13.242c0-.42.265-.759.592-.759h14.811c.327 0 .593.34.593.759 0 .418-.266.758-.593.758zm0-6.228H.593c-.328 0-.593-.34-.593-.758 0-.419.265-.759.592-.759h14.811c.327 0 .593.34.593.759s-.266.758-.593.758zm0-6.227H.593C.264 1.545 0 1.205 0 .786 0 .368.265.028.592.028h14.811c.327 0 .593.34.593.758 0 .42-.266.759-.593.759z" fill="#FFF" mask="url(#b)"/></g></svg>
